!!!!SEGMENT: pl-cz--iii-106--005_dankowski-adalbert--missa-e-sanctus.krn
!!!cenid: 18xx:756
!!!COM: Dankowski, Adalbert
!!!COM-rismID: pe30000793
!!!CDT: ~1760-~1836
!!!CNT: Polish
!!!OPR: Missa E
!!!OTL: Sanctus
!!!OMV: 005
!!!PDT:
!!!AGN: Sacred; Mass
!!!SMS-siglum: PL-CZ
!!!SMS-shelfmark: III-106
!!!SMS-shelfwork: 001-005 M
!!!SMS-variant:
!!!SMS-altvar:
!!!NIFC-rismSourceID: 300000111
!!!NIFC-rismChildID: 300000111
!!!NIFC-islandoraID: pl-cz:34215
!!!URL-pdf-islandora: https://repozytorium.nifc.pl/islandora/object/pl-cz%3A34215/datastream/PDF/view
!!!URL-scan: https://polish.musicsources.pl/pl/lokalizacje/galeria/rekopisy/6824/1 @EN{Scan on Polish Music Sources Website} @PL{Skany w portalu Dziedzictwo Muzyki Polskiej w otwartym dostępie}
!!!IIIF:
!!!ONB-nifc: UWAGA: części Mszy: Kyrie, Gloria, Patrem, Et resurrexit, Sanctus, Benedictus, Osanna, Agnus Dei, Dona nobis
!!!AIN: 1 alto 1 bass 2 cornt 1 organ 1 soprn 1 tenor 2 violn
!!!key: D
**kern	**fba	**kern	**kern	**kern	**text	**kern	**text	**kern	**text	**kern	**text	**kern	**kern
*part9	*part9	*part8	*part7	*part6	*part6	*part5	*part5	*part4	*part4	*part3	*part3	*part2	*part1
*staff9	*staff9	*staff8	*staff7	*staff6	*staff6	*staff5	*staff5	*staff4	*staff4	*staff3	*staff3	*staff2	*staff1
*I"Organo	*	*I"Violino Secondo	*I"Violino Primo	*I"Baſso	*	*I"Tenore	*	*I"Alto	*	*I"Canto	*	*I"Clarino Secondo ex D:	*I"Clarino Primo ex D:
*I'org	*	*I'vl 2	*I'vl 1	*I'B	*	*I'T	*	*I'A	*	*I'S	*	*I'clno 2 ex D	*I'clno 1 ex D
*Iorgan	*	*Ivioln	*Ivioln	*Ibass	*	*Itenor	*	*Ialto	*	*Isoprn	*	*Icornt	*Icornt
*ICklav	*	*ICstr	*ICstr	*ICvox	*	*ICvox	*	*ICvox	*	*ICvox	*	*ICbras	*ICbras
*IGcont	*	*IGacmp	*IGacmp	*IGcoro	*	*IGcoro	*	*IGcoro	*	*IGcoro	*	*IGacmp	*IGacmp
*clefF4	*	*clefG2	*clefG2	*clefF4	*	*clefC4	*	*clefC3	*	*clefC1	*	*clefG2	*clefG2
*	*	*	*	*	*	*	*	*	*	*	*	*ITrd-1c-2	*ITrd-1c-2
*k[f#c#]	*	*k[f#c#]	*k[f#c#]	*k[f#c#]	*	*k[c#f#]	*	*k[f#c#]	*	*k[f#c#]	*	*k[f#c#]	*k[f#c#]
*D:	*	*D:	*D:	*D:	*	*D:	*	*D:	*	*D:	*	*D:	*D:
*M4/4	*	*M4/4	*M4/4	*M4/4	*	*M4/4	*	*M4/4	*	*M4/4	*	*M4/4	*M4/4
*met(C.)	*	*met(C.)	*met(C.)	*met(C.)	*	*met(C.)	*	*met(C.)	*	*met(C.)	*	*met(C.)	*met(C.)
=1	=1	=1	=1	=1	=1	=1	=1	=1	=1	=1	=1	=1	=1
!LO:TX:a:i:t=tutti	!	!	!	!	!	!	!	!	!	!	!	!	!
!LO:TX:a:Bi:t=adag&colon;	!	!LO:TX:a:Bi:t=adagio	!LO:TX:a:Bi:t=adag&colon;	!LO:TX:a:Bi:t=adag&colon;	!	!LO:TX:a:Bi:t=adag&colon;	!	!LO:TX:a:Bi:t=adagio&colon;	!	!LO:TX:a:Bi:t=adag&colon;	!	!LO:TX:a:Bi:t=adag&colon;	!LO:TX:a:Bi:t=adag&colon;
4D\	.	4dd 4f#\	4ff# 4a 4d\	4D\	San-	4A\	San-	4f#\	San-	4dd\	San-	4f#/	4dd\
4D\	.	4dd 4f#\	4ff# 4a 4d\	4D\	-ctus	4A\	-ctus	4f#\	-ctus	4dd\	-ctus	4f#/	4dd\
2r	.	16r	16r	2r	.	2r	.	2r	.	2r	.	2r	2r
.	.	16a\LL	16ff#\LL	.	.	.	.	.	.	.	.	.	.
.	.	16ff#\	16aa\	.	.	.	.	.	.	.	.	.	.
.	.	16ee\JJ	16gg\JJ	.	.	.	.	.	.	.	.	.	.
.	.	16dd\LL	16ff#\LL	.	.	.	.	.	.	.	.	.	.
.	.	16ccn\	16ee\	.	.	.	.	.	.	.	.	.	.
.	.	16b\	16dd\	.	.	.	.	.	.	.	.	.	.
.	.	16a\JJ	16ccn\JJ	.	.	.	.	.	.	.	.	.	.
=2	=2	=2	=2	=2	=2	=2	=2	=2	=2	=2	=2	=2	=2
*	*	*	*	*	*ij	*	*ij	*	*ij	*	*ij	*	*
4G\	.	4b 4d/	4gg 4b 4d\	4G\	San-	4B\	San-	4g\	San-	4dd\	San-	4d/	4dd\
4G\	.	4b 4d/	4gg 4b 4d\	4G\	-ctus	4B\	-ctus	4g\	-ctus	4dd\	-ctus	4d/	4dd\
2r	.	16r	16r	2r	.	2r	.	2r	.	2r	.	2r	2r
.	.	16b\LL	16gg#X\LL	.	.	.	.	.	.	.	.	.	.
.	.	16gg#X\	16bb\	.	.	.	.	.	.	.	.	.	.
.	.	16ff#\JJ	16aa\JJ	.	.	.	.	.	.	.	.	.	.
.	.	16ee\LL	16gg#\LL	.	.	.	.	.	.	.	.	.	.
.	.	16dd\	16ff#\	.	.	.	.	.	.	.	.	.	.
.	.	16cc#X\	16ee\	.	.	.	.	.	.	.	.	.	.
.	.	16b\JJ	16dd\JJ	.	.	.	.	.	.	.	.	.	.
=3	=3	=3	=3	=3	=3	=3	=3	=3	=3	=3	=3	=3	=3
4A\	.	4cc# 4e/	4aa 4cc# 4e\	4A\	San-	4e\	San-	4e\	San-	4cc#\	San-	4a/	4ee\
4A\	.	4cc# 4e/	4aa 4cc# 4e\	4A\	-ctus	4e\	-ctus	4e\	-ctus	4cc#\	-ctus	4a/	4ee\
!	!	!LO:LB:g=original	!LO:LB:g=original	!	!	!	!	!	!	!	!	!	!
8A\L	.	16r	16r	4A\	San-	4e\	San-	4e\	San-	4cc#\	San-	4a/	4ee\
.	.	16cc#\LL	16aa\LL	.	.	.	.	.	.	.	.	.	.
8A\	.	16b\	16gg#X\	.	.	.	.	.	.	.	.	.	.
.	.	16cc#\JJ	16aa\JJ	.	.	.	.	.	.	.	.	.	.
8A\	.	16dd\LL	16bb\LL	4A\	-ctus	4e\	-ctus	4e\	-ctus	4cc#\	-ctus	4r	4r
*	*	*	*	*	*Xij	*	*Xij	*	*Xij	*	*Xij	*	*
.	.	16cc#\	16aa\	.	.	.	.	.	.	.	.	.	.
8A\J	.	16b\	16gg#\	.	.	.	.	.	.	.	.	.	.
.	.	16cc#\JJ	16aa\JJ	.	.	.	.	.	.	.	.	.	.
=4	=4	=4	=4	=4	=4	=4	=4	=4	=4	=4	=4	=4	=4
*2\right	*	*	*	*	*	*	*	*	*	*	*	*	*
*tremolo	*	*	*	*	*	*	*	*	*	*	*	*	*
8A\L	rn7 5	16r	16r	4A\	Do-	4e\	Do-	4e\	Do-	4cc#\	Do-	4a/	4ee\
.	.	16ee\LL	16ggn\LL	.	.	.	.	.	.	.	.	.	.
8A\	.	16dd\	16ff#\	.	.	.	.	.	.	.	.	.	.
.	.	16ee\JJ	16gg\JJ	.	.	.	.	.	.	.	.	.	.
8A\	.	16ff#\LL	16aa\LL	8A\	-mi-	8e\	-mi-	8e\	-mi-	8cc#\	-mi-	4r	4r
.	.	16ee\	16gg\	.	.	.	.	.	.	.	.	.	.
8A\J	.	16dd\	16ff#\	8A\	-nus	8e\	-nus	8e\	-nus	8cc#\	-nus	.	.
.	.	16ee\JJ	16gg\JJ	.	.	.	.	.	.	.	.	.	.
*Xtremolo	*	*	*	*	*	*	*	*	*	*	*	*	*
!	!	!	!	!	!	!LO:LB:g=original	!	!LO:LB:g=original	!	!LO:LB:g=original	!	!	!
8A\L	6	8cc#\L	16r	4A\	San-	4c#\	San-	4a\	San-	4ff#\	San-	2r	2r
.	.	.	16ff#\LL	.	.	.	.	.	.	.	.	.	.
8A\	.	8cc#\	16gg\	.	.	.	.	.	.	.	.	.	.
.	.	.	16ff#\JJ	.	.	.	.	.	.	.	.	.	.
8A#X\	5	8cc#\	16ff#\LL	4A#X\	-ctus	4c#\	-ctus	4g\	-ctus	4ee\	-ctus	.	.
.	.	.	16ee\	.	.	.	.	.	.	.	.	.	.
8A#\J	.	8cc#\J	16cc#\	.	.	.	.	.	.	.	.	.	.
.	.	.	16ee\JJ	.	.	.	.	.	.	.	.	.	.
!	!	!	!	!LO:LB:g=original	!	!	!	!	!	!	!	!	!
=5	=5	=5	=5	=5	=5	=5	=5	=5	=5	=5	=5	=5	=5
8B\L	3	8f#/L	16dd\LL	4B\	De-	4d\	De-	4f#\	De-	4dd\	De-	4dd\	4ff#\
.	.	.	16ff#\	.	.	.	.	.	.	.	.	.	.
8B\	.	8f#/	16ee\	.	.	.	.	.	.	.	.	.	.
.	.	.	16dd\JJ	.	.	.	.	.	.	.	.	.	.
8E\	6_	8g/	16dd\LL	4E\	-us	4G/	-us	4e\	-us	4cc#\	-us	4ee\	4gg\
.	.	.	16cc#\	.	.	.	.	.	.	.	.	.	.
8E\J	.	8g/J	16b\	.	.	.	.	.	.	.	.	.	.
.	.	.	16cc#\JJ	.	.	.	.	.	.	.	.	.	.
!LO:LB:g=original	!	!	!	!	!	!	!	!	!	!	!	!	!
!LO:TX:t=P:problem=mixed beam	!	!	!LO:LB:g=original	!	!	!	!	!	!	!	!	!	!
8F#\L	4	16b\LL	16dd\LL	4F#\	Sa-	4F#/	Sa-	4d\	Sa-	4b\	Sa-	4ff#\	4ff#\
.	.	16dd\	16bb\	.	.	.	.	.	.	.	.	.	.
8F#\	.	16b\	16dd\	.	.	.	.	.	.	.	.	.	.
.	.	16dd\JJ	16bb\JJ	.	.	.	.	.	.	.	.	.	.
8FF#/	#	16a#X\LL	16cc#\LL	4F#\	-ba-	4F#/	-ba-	4c#\	-ba-	4a#X\	-ba-	4f#/	4ff#\
.	.	16cc#\	16aa#X\	.	.	.	.	.	.	.	.	.	.
8FF#/J	.	16a#\	16cc#\	.	.	.	.	.	.	.	.	.	.
.	.	16cc#\JJ	16aa#\JJ	.	.	.	.	.	.	.	.	.	.
!	!	!	!	!	!	!	!	!	!	!	!	!	!LO:LB:g=original
=6	=6	=6	=6	=6	=6	=6	=6	=6	=6	=6	=6	=6	=6
!	!	!	!	!	!	!	!	!	!	!	!	!	!LO:TX:a:t=P:global:problem=krótka kreska taktowa
8BB/	.	8b\	8bb\	8BB/	-oth	8F#/	-oth	8d\	-oth	8b\	-oth	8f#/	8ff#\
!	!	!LO:LB:g=original	!	!	!	!	!	!	!	!LO:PB:g=original	!	!LO:LB:g=original	!
=	=	=	=	=	=	=	=	=	=	=	=	=	=
!	!	!	!LO:TX:b:i:t=pleni	!	!	!	!	!	!	!	!	!	!
!LO:TX:a:Bi:t=allo&colon;	!	!LO:TX:a:Bi:t=allo&colon;	!LO:TX:a:Bi:t=allo&colon;	!LO:TX:a:Bi:t=allo&colon;	!	!LO:TX:a:Bi:t=allo&colon;	!	!LO:TX:a:Bi:t=allo&colon;	!	!LO:TX:a:Bi:t=allo&colon;	!	!LO:TX:a:Bi:t=allo&colon;	!LO:TX:a:Bi:t=allo&colon;
8r	.	8dd\L	8dd\L	8r	.	8r	.	8r	.	8dd\	Ple-	8r	8r
4r	.	8dd\	8dd\	4r	.	4r	.	4r	.	8dd\	-ni	4r	4r
.	.	8dd\J	8dd\J	.	.	.	.	.	.	8dd\	Sunt	.	.
8r	.	4.ee\	4.ee\	8r	.	8r	.	8r	.	(4.ee\	Cae-	8r	8r
8C#/L	6_ 5_	.	.	8C#/	(et)	8e\	(et)	8a\	(et)	.	.	8a/L	8ee\L
8C#/	.	.	.	4C#/	ter-	4e\	ter-	4a\	ter-	.	.	8a/	8ee\
8C#/J	.	16ff#\LL	16ff#\LL	.	.	.	.	.	.	16ff#\LL)	.	8a/J	8ee\J
.	.	16gg\JJ	16gg\JJ	.	.	.	.	.	.	16gg\JJ	.	.	.
=7	=7	=7	=7	=7	=7	=7	=7	=7	=7	=7	=7	=7	=7
4D\	x	8ff#\L	8ff#\L	4D\	-ra	4d\	-ra	4a\	-ra	8ff#\	-li	4f#/	4dd\
*	*	*	*	*	*ij	*	*ij	*	*ij	*	*ij	*	*
.	.	8dd\	8dd\	.	.	.	.	.	.	8dd\	Ple-	.	.
4r	.	8dd\	8dd\	4r	.	4r	.	4r	.	8dd\	-ni	4r	4r
.	.	8dd\J	8dd\J	.	.	.	.	.	.	8dd\	Sunt	.	.
8r	.	4.ee\	4.ee\	8r	.	8r	.	8r	.	(4.ee\	Cae-	8r	8r
8C#/L	6_ 5_	.	.	8C#/	(et)	8e\	(et)	8a\	(et)	.	.	8a/L	8ee\L
8C#/	.	.	.	4C#/	ter-	4e\	ter-	4a\	ter-	.	.	8a/	8ee\
8C#/J	.	16ff#\LL	16ff#\LL	.	.	.	.	.	.	16ff#\LL)	.	8a/J	8ee\J
.	.	16gg\JJ	16gg\JJ	.	.	.	.	.	.	16gg\JJ	.	.	.
=8	=8	=8	=8	=8	=8	=8	=8	=8	=8	=8	=8	=8	=8
*	*	*	*	*	*	*	*	*	*	*	*	*2\right	*2\right
8D\L	x	8ff#\L	16ff#\LL	8D\	-ra	8d\	-ra	8a\	-ra	8ff#\	-li	2dd\	2ff#\
*	*	*	*	*	*Xij	*	*Xij	*	*Xij	*	*Xij	*	*
.	.	.	16dd\	.	.	.	.	.	.	.	.	.	.
!	!	!	!	!	!	!LO:LB:g=original	!	!LO:LB:g=original	!	!	!	!	!
8d\	.	8ff#\	16ff#\	8d\	ple-	8d\	ple-	8a\	ple-	8ff#\	ple-	.	.
.	.	.	16aa\JJ	.	.	.	.	.	.	.	.	.	.
!	!	!	!LO:LB:g=original	!	!	!	!	!	!	!LO:LB:g=original	!	!	!
8d\	.	8ff#\	16bb\LL	8d\	-ni	8d\	-ni	8a\	-ni	8ff#\	-ni	.	.
.	.	.	16aa\	.	.	.	.	.	.	.	.	.	.
8d\J	.	8ff#\J	16gg\	8d\	Sunt	8d\	Sunt	8a\	Sunt	8ff#\	Sunt	.	.
.	.	.	16aa\JJ	.	.	.	.	.	.	.	.	.	.
*	*	*2\right	*	*	*	*	*	*	*	*	*	*	*
*tremolo	*	*tremolo	*	*	*	*	*	*	*	*	*	*	*
!	!	!	!	!LO:LB:g=original	!	!	!	!	!	!	!	!	!
8c#\L	6	8ee\L	16ee\LL	4c#\	Cae-	4e\	Cae-	4a\	Cae-	4ee\	Cae-	2a/	4ee\
.	.	.	16cc#\	.	.	.	.	.	.	.	.	.	.
8c#\	.	8ee\	16ee\	.	.	.	.	.	.	.	.	.	.
.	.	.	16aa\JJ	.	.	.	.	.	.	.	.	.	.
8c#\	.	8ee\	16bb\LL	8c#\	-li	8e\	-li	8a\	-li	8ee\	-li	.	4aa\
.	.	.	16aa\	.	.	.	.	.	.	.	.	.	.
8c#\J	.	8ee\J	16gg\	8c#\	(et)	8e\	(et)	8a\	(et)	8ee\	(et)	.	.
.	.	.	16aa\JJ	.	.	.	.	.	.	.	.	.	.
*Xtremolo	*	*Xtremolo	*	*	*	*	*	*	*	*	*	*	*
=9	=9	=9	=9	=9	=9	=9	=9	=9	=9	=9	=9	=9	=9
8B\L	7	8a/L	16ee\LL	4B\	ter-	4f#\	ter-	4a\	ter-	4dd\	ter-	4dd\	4aa\
.	.	.	16dd\	.	.	.	.	.	.	.	.	.	.
8B\	.	8a/	16cc#\	.	.	.	.	.	.	.	.	.	.
.	.	.	16dd\JJ	.	.	.	.	.	.	.	.	.	.
8E\	7 #	8g#X/	16bb\LL	8E\	-ra	8e\	-ra	8g#X\	-ra	8dd\	-ra	4ee\	4gg#X\
.	.	.	16gg#X\	.	.	.	.	.	.	.	.	.	.
8E\J	.	8g#/J	16ee\	8E\	glo-	8e\	glo-	8g#\	glo-	8dd\	glo-	.	.
.	.	.	16dd\JJ	.	.	.	.	.	.	.	.	.	.
8A\L	.	8a\L	8cc#\	8A\	-ri-	8e\	-ri-	8a\	-ri-	8cc#\	-ri-	8a\L	4.aa\
8F#\	.	8cc#\J	4aa\	8F#\	-a	8f#\	-a	8a\	-a	8cc#\	-a	8ff#\	.
8D\	6 5	4b\	.	8D\L	tu-	8f#\L	tu-	8a\L	tu-	4b\	tu-	8ff#\	.
8E\J	#	.	8gg#\	8E\J	.	8e\J	.	8g#X\J	.	.	.	8ee\J	8gg#\
!	!	!LO:PB:g=original	!	!	!	!	!	!	!	!	!	!	!LO:LB:g=original
=10	=10	=10	=10	=10	=10	=10	=10	=10	=10	=10	=10	=10	=10
!	!	!	!LO:TX:t=P:problem=mixed beam	!	!	!	!	!	!	!	!	!	!
4A\	.	8cc#/L	8aa\L	4AA/	-a	4e\	-a	8a\	-a	4cc#\	-a	4a/	4aa\
.	.	8a/	8a/	.	.	.	.	8a\	ple-	.	.	.	.
4r	.	8a/	8a/	4r	.	4r	.	8a\	-ni	4r	.	4r	4r
!	!	!	!	!	!	!	!	!LO:LB:g=original	!	!	!	!	!
.	.	8a/J	8a/J	.	.	.	.	8a\	Sunt	.	.	.	.
!LO:LB:g=original	!	!	!	!	!	!	!	!	!	!	!	!	!
8r	.	4.b\	4.b\	8r	.	8r	.	(4.b\	Cae-	8r	.	8r	8r
8G#X\L	6_ 5_	.	.	8G#X\	(et)	8d\	(et)	.	.	8ee\	(et)	8ee\L	8ee\L
!	!	!	!	!	!	!LO:LB:g=original	!	!	!	!LO:LB:g=original	!	!	!
8G#\	.	.	.	4G#\	ter-	8d\L	ter-	.	.	4ee\	ter-	8ee\	8ee\
8G#\J	.	16cc#\LL	16cc#\LL	.	.	8B\J	.	16cc#\LL)	.	.	.	8ee\J	8ee\J
.	.	16dd\JJ	16dd\JJ	.	.	.	.	16dd\JJ	.	.	.	.	.
!	!	!	!LO:LB:g=original	!	!	!	!	!	!	!	!	!LO:LB:g=original	!
=11	=11	=11	=11	=11	=11	=11	=11	=11	=11	=11	=11	=11	=11
4A\	x	8cc#/L	8cc#\L	4A\	-ra	4A\	-ra	8cc#\	-li	4ee\	-ra	4a/	4ee\
.	.	8a/	8a\	.	.	.	.	8a\	ple-	.	.	.	.
4r	.	8a/	8a\	4r	.	4r	.	8a\	-ni	4r	.	4r	4r
.	.	8a/J	8a\J	.	.	.	.	8a\	Sunt	.	.	.	.
8r	.	4.b\	4.b\	8r	.	8r	.	(4.b\	Cae-	8r	.	8r	8r
*	*	*	*	*	*	*	*ij	*	*	*	*	*	*
8G#X\L	6_ 5_	.	.	8G#X\	(et)	8d\	(et)	.	.	8ee\	(et)	8ee\L	8ee\L
!	!	!	!	!LO:LB:g=original	!	!	!	!	!	!	!	!	!
8G#\	.	.	.	4G#\	ter-	8d\L	ter-	.	.	4ee\	ter-	8ee\	8ee\
8G#\J	.	16cc#\LL	16cc#\LL	.	.	8B\J	.	16cc#\LL)	.	.	.	8ee\J	8ee\J
.	.	16dd\JJ	16dd\JJ	.	.	.	.	16dd\JJ	.	.	.	.	.
=12	=12	=12	=12	=12	=12	=12	=12	=12	=12	=12	=12	=12	=12
*tremolo	*	*	*	*	*	*	*	*	*	*	*	*	*
8A\L	3_	16cc#\LL	16cc#\LL	8A\	-ra	8A\	-ra	8cc#\	-li	8ee\	-ra	2a/	2ee\
.	.	16aa\	16aa\	.	.	.	.	.	.	.	.	.	.
*	*	*	*	*	*	*	*Xij	*	*ij	*	*	*	*
8A\	.	16gg#X\	16gg#X\	8A\	ple-	8A\	ple-	8e\	ple-	8cc#\	ple-	.	.
.	.	16aa\JJ	16aa\JJ	.	.	.	.	.	.	.	.	.	.
8A\	.	16bb\LL	16bb\LL	8A\	-ni	8A\	-ni	8e\	-ni	8cc#\	-ni	.	.
.	.	16aa\	16aa\	.	.	.	.	.	.	.	.	.	.
8A\J	.	16gg#\	16gg#\	8A\	Sunt	8A\	Sunt	8e\	Sunt	8cc#\	Sunt	.	.
.	.	16aa\JJ	16aa\JJ	.	.	.	.	.	.	.	.	.	.
8Gn\L	.	16cc#\LL	16cc#\LL	4Gn\	Cae-	4A\	Cae-	4e\	Cae-	4cc#\	Cae-	2a/	2ee\
.	.	16aa\	16aa\	.	.	.	.	.	.	.	.	.	.
8G\	.	16gg#\	16gg#\	.	.	.	.	.	.	.	.	.	.
.	.	16aa\JJ	16aa\JJ	.	.	.	.	.	.	.	.	.	.
8G\	.	16bb\LL	16bb\LL	8G\	-li	8A\	-li	8e\	-li	8cc#\	-li	.	.
*	*	*	*	*	*ij	*	*ij	*	*Xij	*	*	*	*
.	.	16aa\	16aa\	.	.	.	.	.	.	.	.	.	.
!	!	!	!	!	!	!	!	!LO:LB:g=original	!	!	!	!	!
8G\J	.	16gg#\	16gg#\	8G\	Sunt	8A\	Sunt	8e\	Sunt	8cc#\	(et)	.	.
.	.	16aa\JJ	16aa\JJ	.	.	.	.	.	.	.	.	.	.
!	!	!LO:LB:g=original	!	!	!	!	!	!	!	!	!	!	!
=13	=13	=13	=13	=13	=13	=13	=13	=13	=13	=13	=13	=13	=13
8F#\L	6	16dd\LL	16dd\LL	4F#\	Cae-	4A\	Cae-	4f#\	Cae-	4dd\	ter-	2dd\	2ff#\
.	.	16aa\	16aa\	.	.	.	.	.	.	.	.	.	.
!	!	!LO:SIC:v:s=16gg#\	!LO:SIC:v:s=16gg#\	!	!	!	!	!	!	!	!	!	!
8F#\	.	16gg\	16gg\	.	.	.	.	.	.	.	.	.	.
.	.	16aa\JJ	16aa\JJ	.	.	.	.	.	.	.	.	.	.
8F#\	.	16bb\LL	16bb\LL	8F#\	-li	8A\	-li	8f#\	-li	8dd\	-ra	.	.
*	*	*	*	*	*Xij	*	*Xij	*	*	*	*	*	*
.	.	16aa\	16aa\	.	.	.	.	.	.	.	.	.	.
!	!	!LO:SIC:v:s=16gg#\	!LO:SIC:v:s=16gg#\	!	!	!	!	!	!	!LO:LB:g=original	!	!	!
8F#\J	.	16gg\	16gg\	8F#\	(et)	8A\	(et)	8f#\	(et)	8dd\	(et)	.	.
.	.	16aa\JJ	16aa\JJ	.	.	.	.	.	.	.	.	.	.
!	!	!	!LO:LB:g=original	!	!	!LO:LB:g=original	!	!	!	!	!	!	!
8C#/L	6 5	16ee\LL	16ee\LL	4C#/	ter-	4A\	ter-	4g\	ter-	4ee\	ter-	2ee\	2ggn\
.	.	16aa\	16aa\	.	.	.	.	.	.	.	.	.	.
!	!	!LO:SIC:v:s=16gg#\	!LO:SIC:v:s=16gg#\	!	!	!	!	!	!	!	!	!	!
8C#/	.	16gg\	16gg\	.	.	.	.	.	.	.	.	.	.
.	.	16aa\JJ	16aa\JJ	.	.	.	.	.	.	.	.	.	.
8C#/	.	16bb\LL	16bb\LL	4C#/	-ra	4A\	-ra	4g\	-ra	4ee\	-ra	.	.
.	.	16aa\	16aa\	.	.	.	.	.	.	.	.	.	.
!	!	!LO:SIC:v:s=16gg#\	!LO:SIC:v:s=16gg#\	!	!	!	!	!	!	!	!	!	!
8C#/J	.	16gg\	16gg\	.	.	.	.	.	.	.	.	.	.
.	.	16aa\JJ	16aa\JJ	.	.	.	.	.	.	.	.	.	.
*Xtremolo	*	*	*	*	*	*	*	*	*	*	*	*	*
=14	=14	=14	=14	=14	=14	=14	=14	=14	=14	=14	=14	=14	=14
8D\L	.	8a/L	16gg\LL	4D\	glo-	4A\	glo-	4f#\	glo-	4dd\	glo-	2dd\	2ff#\
.	.	.	16ff#\	.	.	.	.	.	.	.	.	.	.
8D\	.	8a/J	16ee\	.	.	.	.	.	.	.	.	.	.
.	.	.	16ff#\JJ	.	.	.	.	.	.	.	.	.	.
8D\	.	16b/LL	16aa\LL	8D\	-ri-	8A\	-ri-	8f#\	-ri-	8dd\	-ri-	.	.
.	.	16a/	16ff#\	.	.	.	.	.	.	.	.	.	.
8F#\J	6	16g/	16ee\	8F#\	-a	8A\	-a	8f#\	-a	8dd\	-a	.	.
.	.	16f#/JJ	16dd\JJ	.	.	.	.	.	.	.	.	.	.
!LO:TX:t=P:problem=mixed beam	!	!	!LO:LB:g=original	!	!	!	!	!	!	!	!	!	!
8A\L	4	8f#/L	8dd\L	8A\	tu-	8A\	tu-	8f#\	tu-	8dd\	tu-	8dd\L	8ff#\L
8AA/J	3	8e/J	8cc#\J	8AA/	-a	8A\	-a	8e\	-a	8cc#\	-a	8a\J	8ee\J
8r	.	8r	4aa\	8r	.	8r	.	4a\	glo-	8r	.	8r	8r
8C#/	6 5	8a/	.	8C#/	glo-	8e\	glo-	.	.	8ee\	glo-	8ee\	8gg\
!	!	!	!	!	!	!	!	!	!	!	!	!	!LO:LB:g=original
=15	=15	=15	=15	=15	=15	=15	=15	=15	=15	=15	=15	=15	=15
*	*	*tremolo	*	*	*	*	*	*2\right	*	*	*	*	*
8D\L	.	8a/L	16gg\LL	8D\L	.	4d\	.	2a\	.	4dd\	.	4dd\	4ff#\
.	.	.	16ff#\	.	.	.	.	.	.	.	.	.	.
8F#\J	6	8a/	16ee\	8F#\J	.	.	.	.	.	.	.	.	.
.	.	.	16dd\JJ	.	.	.	.	.	.	.	.	.	.
!LO:LB:g=original	!	!	!	!	!	!	!	!	!	!	!	!	!
8G\L	4_ 2_	8a/	8.cc#\L	8G\L	.	4e\	.	.	.	4cc#\	.	4a/	4dd\
16A\L	.	8a/J	.	16A\L	.	.	.	.	.	.	.	.	.
16G\JJ	.	.	32b\LL	16G\JJ	.	.	.	.	.	.	.	.	.
.	.	.	32cc#\JJJ	.	.	.	.	.	.	.	.	.	.
*	*	*Xtremolo	*	*	*	*	*	*	*	*	*	*	*
8F#\L	6	8a/L	8dd\	8F#\	-ri-	8d\	-ri-	8a\	-ri-	8dd\	-ri-	8f#/	8dd\L
8B\	.	8f#/J	4dd\	8B\	-a	8B\	-a	8f#\	-a	8dd\	-a	4dd\	8ff#\J
8G\	6 5	4e/	.	8G\L	tu-	8c#\L	tu-	4e\	tu-	8dd\L	tu-	.	4ee\
8A\J	.	.	8cc#\	8A\J	.	8B\J	.	.	.	8cc#\J	.	8a/	.
!	!	!LO:LB:g=original	!LO:LB:g=original	!	!	!	!	!LO:LB:g=original	!	!LO:LB:g=original	!	!LO:LB:g=original	!
=16	=16	=16	=16	=16	=16	=16	=16	=16	=16	=16	=16	=16	=16
4D\	.	4f#/	8dd\L	8D\	-a	8A\	-a	8f#\	-a	8dd\	-a	4f#/	4dd\
!	!	!	!	!	!	!LO:LB:g=original	!	!	!	!	!	!	!
.	.	.	8dd\	8d\	oſ-	8d\	oſ-	8dd\	oſ-	8dd\	oſ-	.	.
4r	.	4r	8dd\	8d\	-an-	8d\	-an-	8dd\	-an-	8dd\	-an-	4r	4r
.	.	.	8dd\J	8d\	-na	8d\	-na	8dd\	-na	8dd\	-na	.	.
*	*	*	*	*2\right	*	*2\right	*	*	*	*2\right	*	*	*
8r	.	8r	16dd\LL	2d\	in	2d\	in	2dd\	in	2dd\	in	8r	8r
.	.	.	16dd\	.	.	.	.	.	.	.	.	.	.
8B\L	10 3	8dd\L	16dd\	.	.	.	.	.	.	.	.	8d/L	8dd\L
.	.	.	16dd\JJ	.	.	.	.	.	.	.	.	.	.
*	*	*	*tremolo	*	*	*	*	*	*	*	*	*	*
8A\	n	8ccn\	16dd\LL	.	.	.	.	.	.	.	.	8d/	8dd\
.	.	.	16dd\	.	.	.	.	.	.	.	.	.	.
8G\J	3	8b\J	16dd\	.	.	.	.	.	.	.	.	8d/J	8dd\J
.	.	.	16dd\JJ	.	.	.	.	.	.	.	.	.	.
!	!	!	!	!LO:LB:g=original	!	!	!	!	!	!	!	!	!
=17	=17	=17	=17	=17	=17	=17	=17	=17	=17	=17	=17	=17	=17
8F#\L	3	8a\L	16dd\LL	2d\	ex-	2d\	ex-	2dd\	ex-	2dd\	ex-	2d/	2dd\
.	.	.	16dd\	.	.	.	.	.	.	.	.	.	.
8A\	n	8ccn\	16dd\	.	.	.	.	.	.	.	.	.	.
.	.	.	16dd\JJ	.	.	.	.	.	.	.	.	.	.
8G\	3	8b\	16dd\LL	.	.	.	.	.	.	.	.	.	.
.	.	.	16dd\	.	.	.	.	.	.	.	.	.	.
8F#\J	3	8a\J	16dd\	.	.	.	.	.	.	.	.	.	.
.	.	.	16dd\JJ	.	.	.	.	.	.	.	.	.	.
8G\L	3	8b\L	16dd\LL	2d\	-cel-	2d\	-cel-	2dd\	-cel-	2dd\	-cel-	2d/	2dd\
.	.	.	16dd\	.	.	.	.	.	.	.	.	.	.
8A\	n	8cc\	16dd\	.	.	.	.	.	.	.	.	.	.
.	.	.	16dd\JJ	.	.	.	.	.	.	.	.	.	.
8B\	3	8dd\	16dd\LL	.	.	.	.	.	.	.	.	.	.
.	.	.	16dd\	.	.	.	.	.	.	.	.	.	.
8G\J	3	8b\J	16dd\	.	.	.	.	.	.	.	.	.	.
.	.	.	16dd\JJ	.	.	.	.	.	.	.	.	.	.
*	*	*	*Xtremolo	*	*	*	*	*	*	*	*	*	*
=18	=18	=18	=18	=18	=18	=18	=18	=18	=18	=18	=18	=18	=18
*	*	*	*2\right	*	*	*	*	*	*	*	*	*	*
2D\	.	2a/	2dd\	2d\	-sis	2d\	-sis	2dd\	-sis	2dd\	-sis	2d/	2dd\
!	!	!	!LO:TX:b:i:t=Volti Benedictus	!	!	!	!	!	!	!	!	!	!
2r	.	2r	2r	2r	.	2r	.	2r	.	2r	.	2r	2r
==	==	==	==	==	==	==	==	==	==	==	==	==	==
*-	*-	*-	*-	*-	*-	*-	*-	*-	*-	*-	*-	*-	*-
!!!system-decoration: [(s1,s2)][(s3,s4,s5,s6)][(s7,s8)]<s9>
!!!ENC: Marcin Jachim
!!!END: 2020-07-07
!!!ENC: Andrzej Kubiczek
!!!END: 2021-11-20
!!!YEC: Copyright 2022 Narodowy Instytut Fryderyka Chopina (https://polishscores.org)
!!!YEM: License CC-BY-4.0 (https://creativecommons.org/licenses/by/4.0)
